app/public/dtpr-icons/social.svg

<svg width="36" height="36" viewBox="0 0 36 36" fill="none" xmlns="http://www.w3.org/2000/svg">
<path d="M31.8564 8.8453L19 1.42265C18.3812 1.06538 17.6188 1.06538 17 1.42265L4.14359 8.8453C3.52479 9.20257 3.14359 9.86282 3.14359 10.5774V25.4226C3.14359 26.1372 3.52479 26.7974 4.14359 27.1547L17 34.5774C17.6188 34.9346 18.3812 34.9346 19 34.5774L31.8564 27.1547C32.4752 26.7974 32.8564 26.1372 32.8564 25.4226V10.5774C32.8564 9.86282 32.4752 9.20256 31.8564 8.8453Z" fill="black" stroke="black" stroke-width="2"/>
<path d="M22 17C23.66 17 24.99 15.66 24.99 14C24.99 12.34 23.66 11 22 11C20.34 11 19 12.34 19 14C19 15.66 20.34 17 22 17ZM14 17C15.66 17 16.99 15.66 16.99 14C16.99 12.34 15.66 11 14 11C12.34 11 11 12.34 11 14C11 15.66 12.34 17 14 17ZM14 19C11.67 19 7 20.17 7 22.5V25H21V22.5C21 20.17 16.33 19 14 19ZM22 19C21.71 19 21.38 19.02 21.03 19.05C22.19 19.89 23 21.02 23 22.5V25H29V22.5C29 20.17 24.33 19 22 19Z" fill="white"/>
</svg>

<svg xmlns="http://www.w3.org/2000/svg" width="36" height="36" fill="none"><path fill="#000" stroke="#000" stroke-width="2" d="M31.856 8.845 19 1.423a2 2 0 0 0-2 0L4.144 8.845a2 2 0 0 0-1 1.732v14.846a2 2 0 0 0 1 1.732L17 34.577a2 2 0 0 0 2 0l12.856-7.422a2 2 0 0 0 1-1.732V10.577a2 2 0 0 0-1-1.732Z"/><path fill="#fff" d="M22 17c1.66 0 2.99-1.34 2.99-3s-1.33-3-2.99-3-3 1.34-3 3 1.34 3 3 3m-8 0c1.66 0 2.99-1.34 2.99-3s-1.33-3-2.99-3-3 1.34-3 3 1.34 3 3 3m0 2c-2.33 0-7 1.17-7 3.5V25h14v-2.5c0-2.33-4.67-3.5-7-3.5m8 0c-.29 0-.62.02-.97.05 1.16.84 1.97 1.97 1.97 3.45V25h6v-2.5c0-2.33-4.67-3.5-7-3.5"/></svg>
